BOEHME
CUT[HERR BACCHUS IST EIN BRAVER MANN]
REG[Europa, Mitteleuropa, Deutschland]
KEY[B0343  08 Eb 4/4]
MEL[5_  +1_+1_+1_+1_  7_.65_
    6_  5_4_3_2_  3__1_
    3_  2_3_4_2_  5_3_2_
    5_  6_5_4567  +1__1_ //] >>
FCT[Trink - Lied]
BOEHME
CUT[HERR BACCHUS IST EIN BRAVER MANN]
REG[Europa, Mitteleuropa, Deutschland]
KEY[B0343  08 Eb 4/4]
MEL[5_  +1_+1_+1_+1_  7_.65_
    6_  5_4_3_2_  3__1_
    3_  2_3_4_2_  5_3_2_
    5_  6_5_4567  +1__1_ //] >>
FCT[Trink - Lied]
